X: 1
T: Jessie Over The Bridge
M: 4/4
L: 1/8
R: reel
K: Dmaj
|:(3Bcd ef g2 eg|faaf gfed|(3Bcd ef g2 fg|1afge d3 A:|2afge dABA||
|:GE~E2 GEBE|GEBE D2 EF|GE~E2 GABd|1edcA dABA:|2edcA d3 A||
